public/illustrations/_laptop.svg

<svg width="330" height="229" viewBox="0 0 330 229" fill="none" xmlns="http://www.w3.org/2000/svg">
<path d="M277.742 144.134C266.274 149.203 253.744 151.695 241.284 151.355C241.666 152.927 242.063 154.215 242.586 155.362C247.358 167.539 251.974 179.842 256.887 192.019C257.821 194.029 258.189 196.309 258.119 198.574C258.048 200.84 257.439 202.949 256.377 205.045C253.361 211.614 249.383 217.179 242.643 220.676C239.911 222.163 236.923 222.927 233.794 222.984C209.441 222.885 185.216 222.644 160.863 222.545L54.3613 222.049C51.388 221.964 48.4146 222.177 45.4271 222.233C40.8964 222.247 36.3515 222.701 32.1605 220.733C31.7357 220.577 31.1836 220.421 30.6172 220.407C25.8033 220.279 21.3151 218.736 17.4214 216.074C12.4093 212.676 7.09975 209.986 2.69641 205.753C0.346074 203.558 -0.574273 201.137 0.360198 198.178C2.21498 192.415 4.06977 186.667 6.20773 181.06C12.0128 165.5 17.9594 149.939 24.0476 134.379C24.9679 131.859 24.5999 129.579 24.6707 127.172C24.8689 119.668 25.0813 112.023 25.0105 104.377C25.1945 77.051 25.2369 49.5692 25.2652 22.2289C25.4068 17.2734 25.2654 12.1764 25.3928 7.22085C25.5202 2.26534 28.7201 -0.764634 33.3499 1.345C35.9127 0.707861 38.6168 0.212379 41.1795 0C68.2367 0.0283172 95.1383 0.339786 122.181 0.509689L188.175 0.891999L224.421 1.1751L228.244 1.27431C229.518 1.30263 230.637 1.76982 231.599 2.64765C232.562 3.52548 233.1 4.53072 233.355 5.80499C233.61 6.95184 233.723 8.08457 233.681 9.21726C233.723 18.1372 233.766 26.9296 233.667 35.8495C233.468 53.2646 233.284 70.8212 233.228 88.2505C233.143 101.984 233.185 115.732 233.383 129.466C233.327 131.307 233.851 133.162 234.502 135.016C235.55 138.16 236.88 141.175 237.957 143.611C240.944 142.988 243.379 142.336 245.786 141.982C255.867 140.977 265.552 138.981 274.741 134.563C275.888 134.025 277.034 133.487 278.181 132.822C278.606 127.88 279.017 123.208 279.569 118.408C280.149 112.476 282.004 106.855 285.119 101.701C290.429 93.7723 297.763 89.8646 307.376 90.5583C316.99 91.2521 322.583 98.912 320.629 108.342C319.355 113.552 316.679 118.153 312.757 121.721C306.796 127.512 300.141 132.284 292.821 136.191C289.806 137.806 288.475 139.618 288.673 143.016C288.956 148.41 288.8 153.791 288.956 158.746C289.791 159.199 289.933 159.482 290.216 159.341C296.319 158.803 302.378 160.233 307.518 163.489C308.92 164.24 310.024 165.118 311.129 166.137C316.636 171.956 321.125 178.596 324.622 185.775C327.298 191.509 328.983 197.512 329.79 203.756C331.673 217.83 319.907 228.279 307.164 228.35C303.483 228.392 299.816 227.585 296.46 226.07C293.105 224.555 290.188 222.361 287.724 219.458C281.948 213.356 277.615 206.008 274.854 198.149C271.187 187.148 271.626 176.388 278.266 166.519C278.847 165.825 279.158 164.99 279.187 164.141C278.804 157.472 278.125 150.945 277.615 143.837L277.742 144.12V144.134ZM35.9267 10.3357C35.4453 48.7055 35.3888 87.0895 35.4737 125.473L222.694 126.479C222.906 87.8116 223.232 49.725 223.43 11.3411L35.9267 10.3357ZM12.9614 192.996C17.4922 192.982 21.4707 192.798 25.2936 192.769H113.955C133.083 192.741 152.198 192.84 171.453 192.798C195.24 192.882 219.041 192.967 242.827 193.052C243.818 193.081 244.668 192.967 245.942 192.854C238.523 173.952 231.387 155.49 223.968 136.729L34.341 135.795C27.3041 154.725 20.2815 173.514 12.9473 192.996H12.9614ZM16.9258 203.162C17.1948 203.601 17.1948 203.884 17.3222 204.025C17.8744 204.464 18.5682 204.903 19.1346 205.356C25.2653 209.066 32.288 211.246 39.5089 211.43C58.609 211.954 77.7373 211.912 96.993 212.011C125.169 212.209 153.217 212.124 181.407 212.336C197.265 212.336 213.278 212.492 229.277 212.648C231.118 212.705 232.817 212.605 234.672 212.082C239.245 210.793 243.266 208.485 245.248 203.303L16.9399 203.02V203.162H16.9258ZM289.537 205.073C291.59 207.82 293.501 210.425 295.554 213.03C299.249 217.518 304.177 218.934 309.727 218.085C312.573 217.731 315.15 216.386 317.061 214.177C318.817 211.954 319.751 209.151 319.539 206.319C319.142 200.075 317.188 194.072 314.073 188.748C311.511 189.244 309.09 189.739 306.81 190.249C305.38 190.49 304.8 191.325 304.474 192.741C303.525 196.394 301.373 197.612 297.848 196.805C297.281 196.79 296.729 196.493 295.738 196.181L289.537 205.215V205.073ZM289.282 126.323C295.441 123.803 305.139 116.27 308.24 111.541C309.118 110.295 309.727 108.894 310.194 107.492C311.582 103.287 310.222 101.262 305.833 101.135C299.745 100.965 295.554 103.966 293.005 109.276C290.315 114.585 289.735 120.235 289.282 126.309V126.323ZM285.983 174.108C282.825 180.678 282.103 186.752 284.326 193.321L291.321 186.143L286.124 174.108H285.983ZM296.843 170.569C297.31 174.264 298.768 177.846 300.963 180.735L307.532 178.795C305.394 174.066 300.609 172.947 296.857 170.427V170.569H296.843Z" fill="#102185"/>
<path d="M130.167 112.631C112.893 112.447 95.4781 112.391 78.0488 112.206C69.412 112.107 60.7753 112.022 52.266 112.206C47.0273 112.348 44.3937 109.87 44.4078 104.207C44.2379 84.3706 43.9405 64.3929 43.6291 44.4151C43.4875 39.318 43.3459 34.2067 43.3459 28.968C43.4026 26.9858 43.4451 25.1453 43.9265 23.1772C44.776 18.2359 47.9617 15.3617 53.0729 15.2059C55.9047 15.1351 58.7364 15.3617 61.5681 15.4325L207.643 19.142L211.183 19.2411C212.315 19.2694 213.434 19.8641 214.255 20.742C215.076 21.6198 215.614 22.6249 215.728 23.7576C215.954 25.6124 216.053 27.5947 216.138 29.5769C216.209 42.7444 215.982 56.0535 216.053 69.2352C216.011 80.9868 216.266 92.6109 216.223 104.363L216.152 107.053C215.629 110.72 213.731 112.504 210.05 112.688C205.661 112.858 201.258 112.872 197.01 112.9C174.781 112.716 152.538 112.674 130.308 112.49L130.167 112.631ZM123.271 27.8778L53.6393 25.9806C53.88 37.7464 54.1349 49.0874 54.3898 60.6975L65.7309 60.4426C68.7608 53.0235 72.003 48.5776 79.9177 44.1177C78.8983 39.9833 79.5638 36.3163 83.7406 34.0226C87.0396 32.2669 90.4518 31.9413 93.6517 34.2917C97.8143 37.3783 96.9931 41.6117 95.0392 45.8026C100.066 48.4928 104.2 52.8536 106.748 58.0215C107.017 58.602 107.428 59.1683 107.98 59.6073C108.532 60.0462 109.099 60.3435 109.793 60.5134C113.899 60.6267 118.146 60.4567 122.677 60.4426L123.555 28.0335L123.271 27.8778ZM159.872 82.6998C159.73 77.3196 160.948 74.5162 164.402 72.6189C165.705 71.7977 167.263 71.4155 168.82 71.5995C170.377 71.642 171.921 72.251 173.025 73.1288C177.202 75.9322 176.806 80.024 175.276 84.2432C178.632 86.0414 181.534 88.6608 183.856 91.7049C186.178 94.749 187.778 98.331 188.529 102.026L197.166 102.267C199.997 102.338 202.687 102.423 205.802 102.366C205.802 91.6056 205.675 81.2558 205.675 70.6369L132.305 70.7642L131.455 101.899L145.331 102.281C149.352 95.0321 152.254 87.3155 159.744 82.6998H159.886H159.872ZM205.661 29.7043C199.176 28.6707 136.595 27.8212 134.032 28.4583C133.126 35.7925 132.815 57.4552 133.452 60.3152L140.389 60.4993C141.522 60.6692 142.513 60.5558 143.518 59.8762C144.382 59.3382 145.118 58.5028 145.43 57.3843C147.823 52.4854 151.759 48.4928 156.785 46.2275C157.366 45.9584 157.932 45.5478 158.512 45.1372C156.275 39.134 156.785 35.7359 160.551 32.7343C162.293 31.2193 164.445 30.2848 166.71 30.214C168.976 30.129 171.227 30.7661 173.039 32.0829C177.768 35.1836 179.071 39.6154 177.485 45.5195C179.935 49.4131 181.959 52.8678 184.126 56.4641C185.343 58.4746 186.858 60.0745 189.123 60.1453C194.504 60.2869 199.898 60.0179 205.703 60.0321C205.703 49.6963 205.548 39.7711 205.548 29.5769L205.689 29.7185L205.661 29.7043ZM54.3898 70.8916C54.5314 81.2415 54.687 91.2941 54.8286 101.502L65.0229 101.786C67.6423 93.7862 70.9553 86.6501 78.7142 82.8981C80.031 75.9887 82.8202 72.8172 87.1953 73.2136C88.8801 73.5393 90.565 74.3038 91.9526 75.3233C94.7277 77.2347 93.51 80.4629 93.7224 83.1672C100.448 85.8998 104.271 91.2517 106.494 97.8213C107.145 99.8176 108.363 101.842 110.628 101.899C113.884 102.126 117.141 101.941 120.681 101.899L121.53 70.6227L54.248 70.7642L54.3898 70.9058V70.8916ZM96.3135 101.927C96.3843 99.3788 95.1807 96.9435 93.3826 95.1878C91.5844 93.4463 89.2058 92.3844 86.6572 92.3136C81.5743 91.8888 78.2329 94.9188 76.3357 102.083L96.3135 101.913V101.927ZM177.188 102.437C176.183 97.8779 171.496 92.9365 167.546 92.2569C166.71 91.9454 165.705 92.0588 164.856 92.1862C163.992 92.441 163.27 92.9931 162.689 93.6869C160.778 96.1788 159.15 98.9681 157.082 101.885L177.174 102.437H177.188ZM95.8887 60.5559C93.1702 56.5207 90.2535 54.1703 86.2891 54.057C82.0415 53.9438 79.4222 56.5631 77.3267 60.754L95.8887 60.5559ZM174.073 60.4284C172.912 56.1525 170.406 54.6658 167.008 54.5667C164.884 54.5101 162.887 55.0199 161.019 55.9544C159.15 56.8889 157.55 58.2622 156.233 59.9329L174.073 60.4142V60.4284Z" fill="#102185"/>
<path d="M96.5117 188.054L36.0258 188.522L32.9109 188.437C28.3943 187.743 26.0865 184.43 27.6156 180.083C31.5942 168.997 35.587 157.925 39.7071 146.839C40.1744 145.437 41.0521 144.191 42.2131 143.228C43.3741 142.265 44.8042 141.6 46.2343 141.359C48.2306 140.991 50.3544 140.764 52.3366 140.821C85.4678 141.444 118.585 142.209 151.844 142.973C153.401 143.016 154.959 143.058 156.36 143.384C158.045 143.71 159.588 144.46 160.834 145.635C162.08 146.796 162.887 148.24 163.27 149.953C165.691 159.652 168.126 169.351 170.406 179.049C171.552 183.892 169.783 186.256 164.671 186.964C162.817 187.332 160.834 187.431 158.994 187.516C150.074 187.559 141.281 187.601 132.361 187.785L96.5117 188.083V188.054ZM112.199 168.784C101.014 168.473 90.0977 168.883 79.2097 168.445L78.9549 177.789L111.973 177.421L112.214 168.784H112.199ZM157.366 169.322L123.243 169.096L123.017 177.449L159.291 177.025L157.38 169.322H157.366ZM68.7324 168.459L42.9777 167.751C41.7459 171.262 40.5283 174.476 39.1549 178.129L67.7695 177.775L68.5907 168.303L68.7324 168.445V168.459ZM80.215 157.443L111.633 158.307L111.718 155.192C111.746 154.343 111.477 153.493 111.364 152.346L80.3566 152.063L80.215 157.302V157.443ZM153.543 153.776L122.125 152.913C122.351 154.895 122.45 156.466 122.691 158.165L154.817 159.043L153.543 153.762V153.776ZM46.7865 157.373L69.4262 157.996L69.5819 152.191L48.9244 151.624C48.1599 153.592 47.551 155.263 46.7865 157.373Z" fill="#102185"/>
<path d="M200.777 182.688L186.193 182.292C181.662 182.165 179.581 180.692 178.717 176.133C177.33 169.861 176.084 163.603 174.838 157.33C174.087 153.621 176.013 150.563 177.924 147.788C178.802 146.683 181.082 146.032 182.781 146.074C192.125 146.329 201.456 147.009 210.928 147.688C212.486 147.731 213.887 148.198 214.992 149.218C216.096 150.237 216.917 151.398 217.3 152.969C219.508 160.247 221.859 167.397 223.926 174.675C225.214 179.39 222.864 182.434 217.908 182.589C212.245 182.717 206.567 182.702 200.904 182.688H200.762H200.777ZM185.344 156.481C186.462 162.031 187.467 166.732 188.487 171.291L212.117 171.942L207.828 157.939L185.344 156.622V156.481Z" fill="#102185"/>
</svg>

<svg xmlns="http://www.w3.org/2000/svg" width="330" height="229" fill="none" viewBox="0 0 330 229"><path fill="#102185" d="M277.742 144.134c-11.468 5.069-23.998 7.561-36.458 7.221.382 1.572.779 2.86 1.302 4.007 4.772 12.177 9.388 24.48 14.301 36.657.934 2.01 1.302 4.29 1.232 6.555-.071 2.266-.68 4.375-1.742 6.471-3.016 6.569-6.994 12.134-13.734 15.631-2.732 1.487-5.72 2.251-8.849 2.308-24.353-.099-48.578-.34-72.931-.439l-106.502-.496c-2.973-.085-5.946.128-8.934.184-4.53.014-9.075.468-13.266-1.5-.425-.156-.977-.312-1.544-.326-4.814-.128-9.302-1.671-13.196-4.333-5.012-3.398-10.321-6.088-14.725-10.321-2.35-2.195-3.27-4.616-2.336-7.575 1.855-5.763 3.71-11.511 5.848-17.118a3148 3148 0 0 1 17.84-46.681c.92-2.52.552-4.8.623-7.207.198-7.504.41-15.149.34-22.795.184-27.326.226-54.808.254-82.148.142-4.956 0-10.053.128-15.008.127-4.956 3.327-7.986 7.957-5.876C35.913.708 38.617.212 41.18 0c27.057.028 53.958.34 81.001.51l65.994.382 36.246.283 3.823.1c1.274.028 2.393.495 3.355 1.373.963.877 1.501 1.883 1.756 3.157.255 1.147.368 2.28.326 3.412.042 8.92.085 17.713-.014 26.633-.199 17.415-.383 34.971-.439 52.4-.085 13.734-.043 27.482.155 41.216-.056 1.841.468 3.696 1.119 5.55 1.048 3.144 2.378 6.159 3.455 8.595 2.987-.623 5.422-1.275 7.829-1.629 10.081-1.005 19.766-3.001 28.955-7.419 1.147-.538 2.293-1.076 3.44-1.741.425-4.942.836-9.614 1.388-14.414a39.5 39.5 0 0 1 5.55-16.707c5.31-7.929 12.644-11.836 22.257-11.143 9.614.694 15.207 8.354 13.253 17.784-1.274 5.21-3.95 9.811-7.872 13.379-5.961 5.791-12.616 10.563-19.936 14.47-3.015 1.615-4.346 3.427-4.148 6.825.283 5.394.127 10.775.283 15.73.835.453.977.736 1.26.595 6.103-.538 12.162.892 17.302 4.148 1.402.751 2.506 1.629 3.611 2.648 5.507 5.819 9.996 12.459 13.493 19.638 2.676 5.734 4.361 11.737 5.168 17.981 1.883 14.074-9.883 24.523-22.626 24.594-3.681.042-7.348-.765-10.704-2.28-3.355-1.515-6.272-3.709-8.736-6.612-5.776-6.102-10.109-13.45-12.87-21.309-3.667-11.001-3.228-21.761 3.412-31.63a3.9 3.9 0 0 0 .921-2.378c-.383-6.669-1.062-13.196-1.572-20.304l.127.283zM35.927 10.336c-.482 38.37-.538 76.754-.453 115.137l187.22 1.006c.212-38.667.538-76.754.736-115.138zM12.96 192.996c4.531-.014 8.51-.198 12.333-.227h88.661c19.128-.028 38.243.071 57.498.029l71.374.254c.991.029 1.841-.085 3.115-.198-7.419-18.902-14.555-37.364-21.974-56.125l-189.627-.934a14610 14610 0 0 1-21.394 57.201zm3.965 10.166c.269.439.269.722.396.863.552.439 1.246.878 1.813 1.331 6.13 3.71 13.153 5.89 20.374 6.074 19.1.524 38.228.482 57.484.581 28.176.198 56.224.113 84.414.325 15.858 0 31.871.156 47.87.312 1.841.057 3.54-.043 5.395-.566 4.573-1.289 8.594-3.597 10.576-8.779L16.94 203.02v.142zm272.611 1.911c2.053 2.747 3.964 5.352 6.017 7.957 3.695 4.488 8.623 5.904 14.173 5.055a11.47 11.47 0 0 0 7.334-3.908c1.756-2.223 2.69-5.026 2.478-7.858-.397-6.244-2.351-12.247-5.466-17.571-2.562.496-4.983.991-7.263 1.501-1.43.241-2.01 1.076-2.336 2.492-.949 3.653-3.101 4.871-6.626 4.064-.567-.015-1.119-.312-2.11-.624l-6.201 9.034zm-.255-78.75c6.159-2.52 15.857-10.053 18.958-14.782.878-1.246 1.487-2.647 1.954-4.049 1.388-4.205.028-6.23-4.361-6.357-6.088-.17-10.279 2.831-12.828 8.141-2.69 5.309-3.27 10.959-3.723 17.033zm-3.299 47.785c-3.158 6.57-3.88 12.644-1.657 19.213l6.995-7.178-5.197-12.035zm10.86-3.539c.467 3.695 1.925 7.277 4.12 10.166l6.569-1.94c-2.138-4.729-6.923-5.848-10.675-8.368v.142z"/><path fill="#102185" d="M130.167 112.631c-17.274-.184-34.689-.24-52.118-.425-8.637-.099-17.274-.184-25.783 0-5.239.142-7.872-2.336-7.858-7.999-.17-19.836-.468-39.814-.779-59.792-.142-5.097-.283-10.208-.283-15.447.057-1.982.1-3.823.58-5.79.85-4.942 4.036-7.816 9.147-7.972 2.832-.07 5.663.156 8.495.226l146.075 3.71 3.54.1c1.132.027 2.251.622 3.072 1.5s1.359 1.883 1.473 3.016c.226 1.854.325 3.837.41 5.819.071 13.167-.156 26.476-.085 39.658-.042 11.752.213 23.376.17 35.128l-.071 2.69c-.523 3.667-2.421 5.451-6.102 5.635-4.389.17-8.792.184-13.04.212-22.229-.184-44.472-.226-66.702-.41zm-6.896-84.753L53.639 25.98c.241 11.765.496 23.106.75 34.717l11.342-.255c3.03-7.42 6.272-11.865 14.187-16.325-1.02-4.135-.354-7.802 3.823-10.095 3.299-1.756 6.71-2.082 9.91.269 4.163 3.086 3.342 7.32 1.388 11.51 5.027 2.69 9.161 7.052 11.709 12.22.269.58.68 1.146 1.232 1.585a4.56 4.56 0 0 0 1.813.906c4.106.114 8.353-.056 12.884-.07l.878-32.41zM159.872 82.7c-.142-5.38 1.076-8.184 4.53-10.081a6.8 6.8 0 0 1 4.418-1.02 7.27 7.27 0 0 1 4.205 1.53c4.177 2.803 3.781 6.895 2.251 11.114 3.356 1.798 6.258 4.418 8.58 7.462a25.5 25.5 0 0 1 4.673 10.321l8.637.241c2.831.071 5.521.156 8.636.099 0-10.76-.127-21.11-.127-31.73l-73.37.128-.85 31.135 13.876.382c4.021-7.249 6.923-14.966 14.413-19.581h.142zm45.789-52.996c-6.485-1.033-69.066-1.883-71.629-1.246-.906 7.334-1.217 28.997-.58 31.857l6.937.184c1.133.17 2.124.057 3.129-.623.864-.538 1.6-1.373 1.912-2.492 2.393-4.899 6.329-8.891 11.355-11.157.581-.269 1.147-.68 1.727-1.09-2.237-6.003-1.727-9.401 2.039-12.403 1.742-1.515 3.894-2.45 6.159-2.52 2.266-.085 4.517.552 6.329 1.869 4.729 3.1 6.032 7.532 4.446 13.437 2.45 3.893 4.474 7.348 6.641 10.944 1.217 2.01 2.732 3.61 4.997 3.681 5.381.142 10.775-.127 16.58-.113 0-10.336-.155-20.26-.155-30.455l.141.141zM54.39 70.892c.141 10.35.297 20.402.439 30.61l10.194.284c2.62-8 5.932-15.136 13.691-18.888 1.317-6.91 4.106-10.08 8.481-9.684 1.685.325 3.37 1.09 4.758 2.11 2.775 1.91 1.557 5.139 1.77 7.843 6.725 2.733 10.548 8.085 12.771 14.654.651 1.997 1.869 4.021 4.134 4.078 3.256.227 6.513.042 10.053 0l.849-31.276-67.282.141.142.142zm41.924 31.035c.07-2.548-1.133-4.984-2.931-6.74-1.799-1.74-4.177-2.803-6.726-2.873-5.083-.425-8.424 2.605-10.321 9.769l19.978-.17zm80.874.51c-1.005-4.56-5.692-9.5-9.642-10.18-.836-.312-1.841-.198-2.69-.07-.864.254-1.586.806-2.167 1.5-1.911 2.492-3.539 5.281-5.607 8.198l20.092.552zm-81.3-41.881c-2.718-4.035-5.635-6.386-9.599-6.499-4.248-.113-6.867 2.506-8.962 6.697zm78.185-.128c-1.161-4.275-3.667-5.762-7.065-5.861-2.124-.057-4.121.453-5.989 1.387-1.869.935-3.469 2.308-4.786 3.979l17.84.481zM96.512 188.054l-60.486.468-3.115-.085c-4.517-.694-6.824-4.007-5.295-8.354 3.978-11.086 7.971-22.158 12.091-33.244.467-1.402 1.345-2.648 2.506-3.611s2.591-1.628 4.021-1.869c1.997-.368 4.12-.595 6.103-.538 33.13.623 66.248 1.388 99.507 2.152 1.557.043 3.115.085 4.516.411 1.685.326 3.228 1.076 4.474 2.251 1.246 1.161 2.053 2.605 2.436 4.318 2.421 9.699 4.856 19.398 7.136 29.096 1.146 4.843-.623 7.207-5.735 7.915-1.854.368-3.837.467-5.677.552-8.92.043-17.713.085-26.633.269l-35.85.298zm15.687-19.27c-11.185-.311-22.101.099-32.99-.339l-.254 9.344 33.018-.368.241-8.637zm45.167.538-34.123-.226-.226 8.353 36.274-.424-1.911-7.703zm-88.634-.863-25.754-.708c-1.232 3.511-2.45 6.725-3.823 10.378l28.614-.354.822-9.472.141.142zm11.483-11.016 31.418.864.085-3.115c.028-.849-.241-1.699-.354-2.846l-31.007-.283-.142 5.239zm73.328-3.667-31.418-.863c.226 1.982.325 3.553.566 5.252l32.126.878-1.274-5.281zm-106.757 3.597 22.64.623.156-5.805-20.658-.567a253 253 0 0 0-2.138 5.749M200.777 182.688l-14.584-.396c-4.531-.127-6.612-1.6-7.476-6.159-1.387-6.272-2.633-12.53-3.879-18.803-.751-3.709 1.175-6.767 3.086-9.542.878-1.105 3.158-1.756 4.857-1.714 9.344.255 18.675.935 28.147 1.614 1.558.043 2.959.51 4.064 1.53 1.104 1.019 1.925 2.18 2.308 3.751 2.208 7.278 4.559 14.428 6.626 21.706 1.288 4.715-1.062 7.759-6.018 7.914-5.663.128-11.341.113-17.004.099h-.142zm-15.433-26.207a694 694 0 0 0 3.143 14.81l23.63.651-4.289-14.003-22.484-1.317z"/></svg>
